X: 21756
T: King Of The Fairies
R: hornpipe
M: 4/4
K: Eminor
|:D2|~EDEF GFGA|B2B2G2GA|B2E2EFGE|FG~FED2D2|
~EDEF GFGA|BAGBd2BA|B2EF ~GFED|E4E2D2|
~EDEF GFGA|BcBA GFGA|B2E2B2E2|FG~FED2D2|
~EDEF GFGA|BAGBd2BA|B2EF ~GFED|E4E2:|
|:d2|e2e2Bdef|gagfe2ef|e2B2BAB^c|ded^c Bc (3dcB|
e2B2Bdef|gagfe2ef|gf (3efg fe (3def|e2ede2ef|
g2gef2fd|edB^cd2de|dBAF GAB^c|dBAF GFED|
D2E2EFGA|B2e2~edef|e2B2~BAGF|E4E2:|

